public/assets/mock/objects/lp-record-yellow.svg

<svg width="283" height="284" viewBox="0 0 283 284" fill="none" xmlns="http://www.w3.org/2000/svg">
<g clip-path="url(#clip0_1886_4135)">
<path d="M126.327 2.06445C242.292 -7.76588 320.795 113.557 260.832 214.172C203.363 310.59 58.6603 302.144 13.3037 199.026C-24.4905 113.104 32.5518 10.0117 126.327 2.06445ZM251.775 178.552C250.274 178.139 248.412 178.345 246.237 179.018V179.02C244.802 179.471 243.834 180.445 243.225 181.638L243.188 181.708L243.16 181.783C233.467 207.04 214.756 226.265 191.479 239.507L191.477 239.508C190.746 239.925 189.757 240.3 188.548 240.736C187.388 241.155 186.05 241.623 184.82 242.204C182.402 243.347 179.79 245.221 179.79 248.771C179.79 250.784 180.852 252.617 182.267 253.852C183.683 255.087 185.653 255.896 187.68 255.583L187.681 255.582C188.095 255.518 188.612 255.33 189.087 255.141C189.605 254.933 190.226 254.659 190.907 254.343C192.272 253.709 193.932 252.881 195.599 252.024C198.925 250.315 202.344 248.454 203.57 247.732C219.054 238.653 234.032 224.261 243.885 209.223L243.886 209.222C245.356 206.976 250.58 198.598 253.356 191.371C254.054 189.556 254.615 187.769 254.917 186.142C255.214 184.543 255.29 182.945 254.874 181.59C254.425 180.128 253.408 179.001 251.775 178.552ZM232.345 170.885C231.155 170.537 229.816 170.573 228.379 170.962V170.964C226.981 171.346 225.897 172.475 225.07 173.619C224.209 174.812 223.436 176.296 222.748 177.781C222.058 179.271 221.415 180.845 220.841 182.211C220.324 183.44 219.873 184.472 219.472 185.224L219.303 185.527C212.52 197.213 202.601 208.082 191.467 215.649C189.776 216.797 186.169 218.604 182.605 220.432C180.858 221.328 179.143 222.22 177.754 223.006C177.06 223.399 176.428 223.776 175.906 224.122C175.472 224.41 175.042 224.723 174.713 225.044L174.58 225.181C172.319 227.622 171.884 230.764 173.133 233.223C174.402 235.719 177.228 237.165 180.714 236.568C182.381 236.283 184.735 235.189 187.242 233.808C189.812 232.392 192.741 230.56 195.627 228.639C201.387 224.805 207.093 220.536 209.579 218.358C213.837 214.629 219.937 207.792 225.23 200.559C227.883 196.934 230.354 193.182 232.301 189.64C234.115 186.339 235.518 183.141 236.155 180.359L236.272 179.809C236.757 177.335 236.518 174.745 235.188 172.901C234.504 171.955 233.549 171.237 232.345 170.885ZM215.296 164.328C213.308 163.307 210.775 163.229 208.563 163.931H208.525L208.285 164.015C207.213 164.39 206.465 165.329 205.95 166.146C205.4 167.021 204.918 168.087 204.492 169.126C204.071 170.154 203.655 171.286 203.294 172.209C202.913 173.184 202.586 173.945 202.292 174.441C196.864 183.541 191.108 190.662 182.65 196.893C181.393 197.818 177.441 200.082 173.584 202.303C171.689 203.394 169.846 204.458 168.444 205.304C167.745 205.725 167.139 206.103 166.684 206.407C166.458 206.558 166.25 206.705 166.079 206.839C165.994 206.905 165.901 206.981 165.814 207.063C165.746 207.128 165.6 207.271 165.479 207.472L165.477 207.474C164.21 209.568 164.176 212.113 165.097 214.145C166.035 216.213 168.015 217.833 170.736 217.84H170.737C173.229 217.846 176.303 216.62 179.424 214.912C182.607 213.17 186.072 210.793 189.415 208.23C196.084 203.118 202.44 197.133 205.278 193.684C206.971 191.627 210.044 187.135 212.771 182.619C214.139 180.353 215.437 178.05 216.443 176.015C217.424 174.031 218.209 172.141 218.423 170.76V170.758C218.65 169.281 218.45 167.945 217.858 166.813C217.27 165.688 216.347 164.868 215.296 164.328ZM173.031 195.073C230.632 161.161 201.336 71.269 131.06 80.0205H131.047L130.953 80.0322C108.701 82.8315 88.5266 101.813 81.915 122.846L81.6113 123.849C65.5877 178.548 124.105 223.88 173.031 195.073ZM110.967 64.9873C110.754 65.0078 110.554 65.0727 110.488 65.0938C110.378 65.129 110.253 65.1731 110.126 65.2207C109.868 65.317 109.542 65.4474 109.179 65.5977C108.448 65.8994 107.52 66.3 106.58 66.7139C104.728 67.5294 102.748 68.4324 102.125 68.751C91.0038 74.3628 78.0428 86.579 71.4863 97.1582C70.2322 99.1769 67.0132 104.54 65.4805 109.386C64.7328 111.749 64.2683 114.337 64.9678 116.392C65.341 117.488 66.0459 118.432 67.1533 119.048C68.2262 119.645 69.5499 119.864 71.0654 119.788H71.0664C72.7663 119.702 74.1679 118.708 75.2744 117.542C76.3961 116.36 77.3936 114.815 78.2803 113.237C79.1715 111.652 79.9996 109.944 80.749 108.419C81.4189 107.056 82.0142 105.863 82.5625 104.943L82.7949 104.567C87.797 96.737 94.6609 89.5283 102.272 84.2197L103.012 83.7119C104.266 82.8619 107.192 81.4001 110.132 79.8721C111.563 79.1284 112.974 78.381 114.102 77.7188C114.664 77.3882 115.18 77.0657 115.602 76.7656C115.984 76.4937 116.428 76.1446 116.72 75.7471L116.723 75.7432C118.425 73.4054 118.24 70.5858 117.08 68.4824C116.173 66.8383 114.575 65.4688 112.61 65.0879V64.8291L110.967 64.9873ZM104.912 46.7363C103.744 46.5967 102.45 46.767 101.134 47.1055C99.7129 47.4709 98.1642 48.0593 96.5547 48.7949C93.3357 50.2662 89.7497 52.3849 86.2578 54.6914C79.2818 59.2992 72.5027 64.7788 69.5244 67.6748C66.1605 70.946 60.4223 77.97 55.4434 85.2373C52.9478 88.8798 50.6178 92.6199 48.8594 96.0166C47.1275 99.3621 45.8552 102.549 45.6455 105.032C45.3733 108.217 47.4844 110.446 49.8896 111.365C52.2597 112.271 55.3206 112.081 57.415 110.086L57.4141 110.085C57.7295 109.785 57.983 109.377 58.1699 109.043C58.3782 108.67 58.5938 108.226 58.8096 107.748C59.2417 106.792 59.7174 105.606 60.1904 104.408C61.1682 101.931 62.1033 99.4887 62.7578 98.3252L62.7588 98.3232C69.6284 86.0604 79.7684 74.8714 91.4404 67.0996C92.9376 66.1046 96.7641 64.1942 100.51 62.3086C102.348 61.3833 104.141 60.476 105.543 59.7227C106.243 59.3466 106.864 58.9989 107.353 58.7002C107.771 58.4441 108.284 58.112 108.592 57.7646L108.593 57.7656C110.166 55.9911 110.505 53.4622 109.942 51.3545C109.373 49.2204 107.775 47.185 105.145 46.7686L104.912 46.7363ZM101.551 31.043C100.213 28.6592 97.4392 27.3254 93.9746 27.998H93.9727C90.5013 28.6767 86.3752 30.5646 82.0771 33.0771C77.753 35.6049 73.1476 38.8294 68.6963 42.2812C60.3626 48.7437 52.4675 56.0814 47.877 61.2822L47.0039 62.293C44.3008 65.4987 39.6684 72.0823 35.5879 78.793C33.5435 82.1551 31.6197 85.5785 30.1367 88.6523C28.6744 91.6834 27.5691 94.517 27.2744 96.6543C26.785 100.191 28.1992 103.042 30.6748 104.257C33.1445 105.469 36.1911 104.809 38.3906 102.338L38.5566 102.151L38.6533 101.921C48.0349 79.5692 62.9529 61.0305 83.4297 48.1289H83.4307C84.7622 47.2884 88.7537 45.2787 92.6191 43.3213C94.5224 42.3575 96.3707 41.4178 97.7812 40.6709C98.4848 40.2984 99.096 39.9659 99.5557 39.6973C99.7838 39.5639 99.9926 39.4353 100.164 39.3193C100.27 39.2475 100.56 39.0549 100.766 38.79V38.7891C102.627 36.3883 102.849 33.3579 101.551 31.043Z" fill="#FFED23" stroke="black" stroke-width="3"/>
<path d="M131.14 81.5198C199.93 72.8698 228.43 160.71 172.26 193.78C124.51 221.9 67.3996 177.66 83.0396 124.27C89.1696 103.34 109.19 84.2798 131.13 81.5198H131.14ZM135.15 101.54C86.0696 107.48 91.8896 185.45 143.83 182.24C196.92 178.96 191.95 94.6598 135.15 101.54Z" fill="white"/>
<path d="M246.69 180.45C263.23 175.32 245.56 203.93 242.64 208.4C232.91 223.25 218.09 237.49 202.82 246.44C200.45 247.83 189.26 253.82 187.46 254.1C184.48 254.56 181.3 251.75 181.3 248.77C181.3 243.52 188.77 242.78 192.23 240.81C215.75 227.43 234.73 207.96 244.57 182.32C245.03 181.41 245.72 180.75 246.7 180.45H246.69Z" fill="white"/>
<path d="M94.26 29.4702C100.08 28.3302 102.61 33.9402 99.58 37.8702C98.99 38.6302 85.45 45.0802 82.63 46.8602C61.87 59.9402 46.76 78.7302 37.27 101.34C33.63 105.43 27.92 102.93 28.76 96.8602C29.8 89.3102 42.87 69.5102 48.15 63.2602C56.81 53.0102 81.37 31.9902 94.26 29.4702Z" fill="white"/>
<path d="M56.3798 109C53.2198 112.01 46.7398 109.85 47.1398 105.16C47.8798 96.4902 64.0398 75.0902 70.5698 68.7502C76.3598 63.1302 97.3698 47.0702 104.91 48.2502C108.7 48.8502 109.82 54.1202 107.47 56.7702C106.4 57.9802 93.7998 63.7202 90.6098 65.8502C78.7298 73.7602 68.4298 85.1302 61.4498 97.5902C60.0198 100.15 57.4998 107.93 56.3798 109Z" fill="white"/>
<path d="M228.78 172.41C233.73 171.08 235.69 175.03 234.81 179.52C232.71 190.25 216.9 209.96 208.6 217.23C203.77 221.46 186.02 234.14 180.47 235.09C174.63 236.09 171.93 230.27 175.69 226.2C177.39 224.36 188.74 219.32 192.32 216.89C203.65 209.19 213.73 198.15 220.61 186.28C222.61 182.83 225.24 173.37 228.79 172.41H228.78Z" fill="white"/>
<path d="M111.11 66.48C115.06 66.12 118.11 71.27 115.51 74.84C114.41 76.34 104.87 80.62 102.17 82.45C94.0896 87.92 86.7896 95.49 81.5296 103.74C78.8696 107.91 75.5496 118.04 70.9896 118.27C60.2496 118.82 70.2496 101.98 72.7596 97.93C79.1896 87.58 91.9496 75.55 102.8 70.07C103.93 69.5 110.59 66.51 111.11 66.46V66.48Z" fill="white"/>
<path d="M208.78 165.43C212.68 164.07 217.67 165.72 216.92 170.53C216.22 175.05 207.35 188.79 204.1 192.73C198.62 199.39 179.06 216.36 170.72 216.34C166.62 216.34 164.75 211.54 166.74 208.25C167.25 207.41 180.84 200.08 183.52 198.1C192.18 191.72 198.06 184.42 203.56 175.21C205.02 172.76 206.5 166.23 208.76 165.43H208.78Z" fill="white"/>
<path d="M135.33 103.028C149.133 101.359 159.647 105.229 166.921 111.896C174.225 118.592 178.377 128.215 179.204 138.211C180.031 148.208 177.522 158.464 171.653 166.392C165.809 174.285 156.576 179.951 143.738 180.742H143.737C131.161 181.519 121.479 177.391 114.711 170.748C107.916 164.079 103.98 154.795 103.102 145.181C101.342 125.925 111.806 105.871 135.33 103.028ZM155.001 124.361C150.707 120.59 144.598 118.704 136.848 120.031C124.124 122.209 118.807 133.764 119.982 144.201C120.573 149.444 122.796 154.552 126.646 158.247C130.523 161.968 135.97 164.175 142.805 163.696C149.704 163.213 154.815 159.88 158.044 155.229C161.248 150.615 162.57 144.752 162.076 139.157C161.582 133.562 159.257 128.1 155.001 124.361Z" fill="#FFED23" stroke="black" stroke-width="3"/>
<path d="M137.1 121.51C166.54 116.47 169.18 160.35 142.7 162.2C116.22 164.05 113.67 125.52 137.1 121.51ZM140.12 131.45C127.04 132.94 128.49 154.75 144.63 151.05C154.91 148.69 152.46 130.05 140.12 131.45Z" fill="white"/>
<path d="M140.289 132.939C142.962 132.636 145.005 133.414 146.485 134.715C147.995 136.042 148.997 137.99 149.382 140.104C150.172 144.443 148.348 148.653 144.293 149.588C140.59 150.436 137.929 149.788 136.142 148.531C134.332 147.258 133.229 145.231 132.906 142.983C132.252 138.428 134.797 133.566 140.289 132.939Z" fill="#FFED23" stroke="black" stroke-width="3"/>
</g>
<defs>
<clipPath id="clip0_1886_4135">
<rect width="282.98" height="283.19" fill="white"/>
</clipPath>
</defs>
</svg>

<?xml version="1.0" encoding="UTF-8"?>
<svg id="_레이어_1" data-name="레이어_1" xmlns="http://www.w3.org/2000/svg" width="283" height="284" version="1.1" xmlns:xlink="http://www.w3.org/1999/xlink" viewBox="0 0 283 284">
  <!-- Generator: Adobe Illustrator 29.6.1, SVG Export Plug-In . SVG Version: 2.1.1 Build 9)  -->
  <defs>
    <clipPath id="clippath">
      <rect width="282.98" height="283.19" fill="none"/>
    </clipPath>
  </defs>
  <g clip-path="url(#clippath)">
    <g>
      <path d="M126.33,2.06c115.97-9.83,194.47,111.49,134.5,212.11-57.47,96.42-202.17,87.97-247.53-15.15C-24.49,113.1,32.55,10.01,126.33,2.06ZM251.77,178.55c-1.5-.41-3.36-.21-5.54.47h0c-1.43.45-2.4,1.43-3.01,2.62l-.04.07-.03.08c-9.69,25.26-28.4,44.48-51.68,57.72h0c-.73.42-1.72.79-2.93,1.23-1.16.42-2.5.89-3.73,1.47-2.42,1.14-5.03,3.02-5.03,6.57,0,2.01,1.06,3.85,2.48,5.08,1.42,1.24,3.39,2.04,5.41,1.73h0c.41-.06.93-.25,1.41-.44.52-.21,1.14-.48,1.82-.8,1.37-.63,3.03-1.46,4.69-2.32,3.33-1.71,6.74-3.57,7.97-4.29,15.48-9.08,30.46-23.47,40.31-38.51h0c1.47-2.25,6.69-10.62,9.47-17.85.7-1.82,1.26-3.6,1.56-5.23.3-1.6.37-3.2-.04-4.55-.45-1.46-1.47-2.59-3.1-3.04ZM232.35,170.88c-1.19-.35-2.53-.31-3.97.08h0c-1.4.38-2.48,1.51-3.31,2.66-.86,1.19-1.63,2.68-2.32,4.16-.69,1.49-1.33,3.06-1.91,4.43-.52,1.23-.97,2.26-1.37,3.01l-.17.3c-6.78,11.69-16.7,22.56-27.84,30.12-1.69,1.15-5.3,2.96-8.86,4.78-1.75.9-3.46,1.79-4.85,2.57-.69.39-1.33.77-1.85,1.12-.43.29-.86.6-1.19.92l-.13.14c-2.26,2.44-2.7,5.58-1.45,8.04,1.27,2.5,4.1,3.94,7.58,3.34,1.67-.28,4.02-1.38,6.53-2.76,2.57-1.42,5.5-3.25,8.38-5.17,5.76-3.83,11.47-8.1,13.95-10.28,4.26-3.73,10.36-10.57,15.65-17.8,2.65-3.62,5.12-7.38,7.07-10.92,1.81-3.3,3.22-6.5,3.85-9.28l.12-.55c.49-2.47.25-5.06-1.08-6.91-.68-.95-1.64-1.66-2.84-2.02ZM215.3,164.33c-1.99-1.02-4.52-1.1-6.73-.4h-.04l-.24.08c-1.07.38-1.82,1.31-2.34,2.13-.55.88-1.03,1.94-1.46,2.98-.42,1.03-.84,2.16-1.2,3.08-.38.98-.71,1.74-1,2.23-5.43,9.1-11.18,16.22-19.64,22.45-1.26.92-5.21,3.19-9.07,5.41-1.9,1.09-3.74,2.15-5.14,3-.7.42-1.3.8-1.76,1.1-.23.15-.43.3-.61.43-.08.07-.18.14-.26.22-.07.07-.21.21-.33.41h0c-1.27,2.1-1.3,4.64-.38,6.67.94,2.07,2.92,3.69,5.64,3.69h0c2.49,0,5.57-1.22,8.69-2.93,3.18-1.74,6.65-4.12,9.99-6.68,6.67-5.11,13.03-11.1,15.86-14.55,1.69-2.06,4.77-6.55,7.49-11.07,1.37-2.27,2.67-4.57,3.67-6.6.98-1.98,1.77-3.87,1.98-5.26h0c.23-1.48.03-2.81-.57-3.95-.59-1.12-1.51-1.95-2.56-2.49ZM173.03,195.07c57.6-33.91,28.3-123.8-41.97-115.05h-.11c-22.25,2.81-42.43,21.79-49.04,42.83l-.3,1c-16.02,54.7,42.49,100.03,91.42,71.22ZM110.97,64.99c-.21.02-.41.09-.48.11-.11.04-.24.08-.36.13-.26.1-.58.23-.95.38-.73.3-1.66.7-2.6,1.12-1.85.82-3.83,1.72-4.46,2.04-11.12,5.61-24.08,17.83-30.64,28.41-1.25,2.02-4.47,7.38-6.01,12.23-.75,2.36-1.21,4.95-.51,7.01.37,1.1,1.08,2.04,2.19,2.66,1.07.6,2.4.82,3.91.74h0c1.7-.09,3.1-1.08,4.21-2.25,1.12-1.18,2.12-2.73,3.01-4.31.89-1.58,1.72-3.29,2.47-4.82.67-1.36,1.27-2.56,1.81-3.48l.23-.38c5-7.83,11.87-15.04,19.48-20.35l.74-.51c1.25-.85,4.18-2.31,7.12-3.84,1.43-.74,2.84-1.49,3.97-2.15.56-.33,1.08-.65,1.5-.95.38-.27.83-.62,1.12-1.02h0c1.7-2.34,1.52-5.16.36-7.26-.91-1.64-2.51-3.01-4.47-3.39v-.26l-1.64.16ZM104.91,46.74c-1.17-.14-2.46.03-3.78.37-1.42.37-2.97.95-4.58,1.69-3.22,1.47-6.81,3.59-10.3,5.9-6.98,4.61-13.76,10.09-16.73,12.98-3.36,3.27-9.1,10.3-14.08,17.56-2.5,3.64-4.83,7.38-6.58,10.78-1.73,3.35-3,6.53-3.21,9.02-.27,3.19,1.84,5.41,4.24,6.33,2.37.91,5.43.72,7.53-1.28h0c.32-.3.57-.71.76-1.04.21-.37.42-.82.64-1.29.43-.96.91-2.14,1.38-3.34.98-2.48,1.91-4.92,2.57-6.08h0c6.87-12.26,17.01-23.45,28.68-31.23,1.5-1,5.32-2.91,9.07-4.79,1.84-.93,3.63-1.83,5.03-2.59.7-.38,1.32-.72,1.81-1.02.42-.26.93-.59,1.24-.94h0c1.57-1.77,1.91-4.3,1.35-6.41-.57-2.13-2.17-4.17-4.8-4.59l-.23-.03ZM101.55,31.04c-1.34-2.38-4.11-3.72-7.58-3.05h0c-3.47.68-7.6,2.57-11.9,5.08-4.32,2.53-8.93,5.75-13.38,9.2-8.33,6.46-16.23,13.8-20.82,19l-.87,1.01c-2.7,3.21-7.34,9.79-11.42,16.5-2.04,3.36-3.97,6.79-5.45,9.86-1.46,3.03-2.57,5.86-2.86,8-.49,3.54.92,6.39,3.4,7.6,2.47,1.21,5.52.55,7.72-1.92l.17-.19.1-.23c9.38-22.35,24.3-40.89,44.78-53.79h0c1.33-.84,5.32-2.85,9.19-4.81,1.9-.96,3.75-1.9,5.16-2.65.7-.37,1.31-.7,1.77-.97.23-.13.44-.26.61-.38.11-.07.4-.26.6-.53h0c1.86-2.4,2.08-5.43.79-7.75Z" fill="#ff9" stroke="#000" stroke-width="3"/>
      <path d="M131.14,81.52c68.79-8.65,97.29,79.19,41.12,112.26-47.75,28.12-104.86-16.12-89.22-69.51,6.13-20.93,26.15-39.99,48.09-42.75h0ZM135.15,101.54c-49.08,5.94-43.26,83.91,8.68,80.7,53.09-3.28,48.12-87.58-8.68-80.7Z" fill="#fff"/>
      <path d="M246.69,180.45c16.54-5.13-1.13,23.48-4.05,27.95-9.73,14.85-24.55,29.09-39.82,38.04-2.37,1.39-13.56,7.38-15.36,7.66-2.98.46-6.16-2.35-6.16-5.33,0-5.25,7.47-5.99,10.93-7.96,23.52-13.38,42.5-32.85,52.34-58.49.46-.91,1.15-1.57,2.13-1.87h0Z" fill="#fff"/>
      <path d="M94.26,29.47c5.82-1.14,8.35,4.47,5.32,8.4-.59.76-14.13,7.21-16.95,8.99-20.76,13.08-35.87,31.87-45.36,54.48-3.64,4.09-9.35,1.59-8.51-4.48,1.04-7.55,14.11-27.35,19.39-33.6,8.66-10.25,33.22-31.27,46.11-33.79Z" fill="#fff"/>
      <path d="M56.38,109c-3.16,3.01-9.64.85-9.24-3.84.74-8.67,16.9-30.07,23.43-36.41,5.79-5.62,26.8-21.68,34.34-20.5,3.79.6,4.91,5.87,2.56,8.52-1.07,1.21-13.67,6.95-16.86,9.08-11.88,7.91-22.18,19.28-29.16,31.74-1.43,2.56-3.95,10.34-5.07,11.41Z" fill="#fff"/>
      <path d="M228.78,172.41c4.95-1.33,6.91,2.62,6.03,7.11-2.1,10.73-17.91,30.44-26.21,37.71-4.83,4.23-22.58,16.91-28.13,17.86-5.84,1-8.54-4.82-4.78-8.89,1.7-1.84,13.05-6.88,16.63-9.31,11.33-7.7,21.41-18.74,28.29-30.61,2-3.45,4.63-12.91,8.18-13.87h0Z" fill="#fff"/>
      <path d="M111.11,66.48c3.95-.36,7,4.79,4.4,8.36-1.1,1.5-10.64,5.78-13.34,7.61-8.08,5.47-15.38,13.04-20.64,21.29-2.66,4.17-5.98,14.3-10.54,14.53-10.74.55-.74-16.29,1.77-20.34,6.43-10.35,19.19-22.38,30.04-27.86,1.13-.57,7.79-3.56,8.31-3.61v.02Z" fill="#fff"/>
      <path d="M208.78,165.43c3.9-1.36,8.89.29,8.14,5.1-.7,4.52-9.57,18.26-12.82,22.2-5.48,6.66-25.04,23.63-33.38,23.61-4.1,0-5.97-4.8-3.98-8.09.51-.84,14.1-8.17,16.78-10.15,8.66-6.38,14.54-13.68,20.04-22.89,1.46-2.45,2.94-8.98,5.2-9.78h.02Z" fill="#fff"/>
      <path d="M135.33,103.03c13.8-1.67,24.32,2.2,31.59,8.87,7.3,6.7,11.46,16.32,12.28,26.31.83,10-1.68,20.25-7.55,28.18-5.84,7.89-15.08,13.56-27.91,14.35h0c-12.58.78-22.26-3.35-29.03-9.99-6.79-6.67-10.73-15.95-11.61-25.57-1.76-19.26,8.7-39.31,32.23-42.15ZM155,124.36c-4.29-3.77-10.4-5.66-18.15-4.33-12.72,2.18-18.04,13.73-16.87,24.17.59,5.24,2.81,10.35,6.66,14.05,3.88,3.72,9.32,5.93,16.16,5.45,6.9-.48,12.01-3.82,15.24-8.47,3.2-4.61,4.53-10.48,4.03-16.07s-2.82-11.06-7.07-14.8Z" fill="#ff9" stroke="#000" stroke-width="3"/>
      <path d="M137.1,121.51c29.44-5.04,32.08,38.84,5.6,40.69-26.48,1.85-29.03-36.68-5.6-40.69ZM140.12,131.45c-13.08,1.49-11.63,23.3,4.51,19.6,10.28-2.36,7.83-21-4.51-19.6Z" fill="#fff"/>
      <path d="M140.29,132.94c2.67-.3,4.72.48,6.2,1.78,1.51,1.33,2.51,3.28,2.9,5.39.79,4.34-1.03,8.55-5.09,9.48-3.7.85-6.36.2-8.15-1.06-1.81-1.27-2.91-3.3-3.24-5.55-.65-4.56,1.89-9.42,7.38-10.04Z" fill="#ffed23" stroke="#000" stroke-width="3"/>
    </g>
  </g>
</svg>
